svg/charges/weapon/bow-with-arrow.svg

<?xml version="1.0" encoding="UTF-8" standalone="no"?>
<svg
   xmlns:dc="http://purl.org/dc/elements/1.1/"
   xmlns:cc="http://creativecommons.org/ns#"
   xmlns:rdf="http://www.w3.org/1999/02/22-rdf-syntax-ns#"
   xmlns:svg="http://www.w3.org/2000/svg"
   xmlns="http://www.w3.org/2000/svg"
   version="1.1"
   width="245.25"
   height="306"
   id="svg70">
  <defs
     id="defs5">
    <clipPath
       id="artboard_clip_path">
      <path
         d="M 59.625 63 L 304.875 63 L 304.875 369 L 59.625 369 Z"
         id="path2" />
    </clipPath>
  </defs>
  <metadata
     id="metadata7"> Produced by OmniGraffle 7.7.1 
    <dc:date>2018-03-18 08:21:30 +0000</dc:date>
<dc:title>Traceable heraldic art http://heraldicart.org/credits.html</dc:title>
<rdf:RDF>
  <cc:Work
     rdf:about="">
    <dc:format>image/svg+xml</dc:format>
    <dc:type
       rdf:resource="http://purl.org/dc/dcmitype/StillImage" />
    <dc:title></dc:title>
  </cc:Work>
</rdf:RDF>
</metadata>
  <g
     id="Bow_With_An_Arrow_Nocked"
     fill-opacity="1"
     stroke-dasharray="none"
     stroke="none"
     stroke-opacity="1"
     fill="#ffff00"
     transform="translate(-59.625096,-63)">
    <title
       id="title9">Bow With An Arrow Nocked</title>
    <g
       id="Bow_With_An_Arrow_Nocked: Layer 2">
      <title
         id="title11">Layer 2</title>
      <g
         id="Group_3">
        <g
           id="Graphic_11">
          <title
             id="title13">rect21</title>
          <rect
             x="294.57416"
             y="71.671135"
             width="4.1176414"
             height="289.40274"
             fill="#ff0000"
             id="rect15" />
          <rect
             x="294.57416"
             y="71.671135"
             width="4.1176414"
             height="289.40274"
             stroke="#cccccc"
             stroke-linecap="round"
             stroke-linejoin="round"
             stroke-width="1.5"
             id="rect17" />
        </g>
        <g
           id="Graphic_10">
          <title
             id="title20">path26</title>
          <path
             d="m 184.12305,236.08983 h 20.08388 l 1.48769,14.1331 2.97538,14.1331 5.95823,13.39669 7.43847,12.64541 9.67002,12.6454 11.90156,11.15771 13.38925,9.67746 14.88437,8.92617 8.9262,5.20693 8.1823,6.69463 5.9508,7.43847 3.71922,8.1823 0.74385,2.9754 -2.23154,2.23155 -3.71923,0.74385 -3.71925,-1.4877 -0.74385,-2.9754 -1.4877,-5.2069 -3.71923,-5.20695 -4.46307,-4.46308 -6.69464,-2.97539 -17.11593,-6.69463 -16.36463,-8.92615 -14.1331,-9.67747 -12.64541,-11.90156 -10.42131,-12.64541 -8.18232,-13.38926 -5.95078,-14.88437 -2.97538,-14.1331 z"
             fill="#ff0000"
             id="path22" />
          <path
             d="m 184.12305,236.08983 h 20.08388 l 1.48769,14.1331 2.97538,14.1331 5.95823,13.39669 7.43847,12.64541 9.67002,12.6454 11.90156,11.15771 13.38925,9.67746 14.88437,8.92617 8.9262,5.20693 8.1823,6.69463 5.9508,7.43847 3.71922,8.1823 0.74385,2.9754 -2.23154,2.23155 -3.71923,0.74385 -3.71925,-1.4877 -0.74385,-2.9754 -1.4877,-5.2069 -3.71923,-5.20695 -4.46307,-4.46308 -6.69464,-2.97539 -17.11593,-6.69463 -16.36463,-8.92615 -14.1331,-9.67747 -12.64541,-11.90156 -10.42131,-12.64541 -8.18232,-13.38926 -5.95078,-14.88437 -2.97538,-14.1331 z"
             stroke="#cccccc"
             stroke-linecap="round"
             stroke-linejoin="round"
             stroke-width="2"
             id="path24" />
        </g>
        <g
           id="Graphic_9">
          <title
             id="title27">path31</title>
          <path
             d="m 184.12305,195.16632 h 20.08388 l 1.48769,-14.1331 2.97538,-13.38925 5.95823,-13.38925 7.43847,-13.3967 9.67002,-11.90155 11.90156,-11.15771 13.38925,-9.67002 14.88437,-8.93361 8.9262,-5.20693 8.1823,-6.69463 5.9508,-7.43847 3.71922,-8.92617 0.74385,-2.23154 -2.23154,-2.23154 -3.71923,-0.74385 -3.71925,1.487695 -0.74385,2.231545 -1.4877,5.95078 -3.71923,5.20693 -4.46307,4.46308 -6.69464,2.97539 -17.11593,6.69463 -16.36463,8.93361 -14.1331,9.67001 -12.64541,11.90156 -10.42131,12.64541 -8.18232,13.39669 -5.95078,14.1331 -2.97538,14.87694 z"
             fill="#ff0000"
             id="path29" />
          <path
             d="m 184.12305,195.16632 h 20.08388 l 1.48769,-14.1331 2.97538,-13.38925 5.95823,-13.38925 7.43847,-13.3967 9.67002,-11.90155 11.90156,-11.15771 13.38925,-9.67002 14.88437,-8.93361 8.9262,-5.20693 8.1823,-6.69463 5.9508,-7.43847 3.71922,-8.92617 0.74385,-2.23154 -2.23154,-2.23154 -3.71923,-0.74385 -3.71925,1.487695 -0.74385,2.231545 -1.4877,5.95078 -3.71923,5.20693 -4.46307,4.46308 -6.69464,2.97539 -17.11593,6.69463 -16.36463,8.93361 -14.1331,9.67001 -12.64541,11.90156 -10.42131,12.64541 -8.18232,13.39669 -5.95078,14.1331 -2.97538,14.87694 z"
             stroke="#cccccc"
             stroke-linecap="round"
             stroke-linejoin="round"
             stroke-width="2"
             id="path31" />
        </g>
        <g
           id="Graphic_8">
          <title
             id="title34">path36</title>
          <path
             d="m 200.48727,194.4247 2.97539,0.74385 2.97539,2.23155 0.74385,2.97539 v 49.84521 l -0.74385,3.71924 -2.97539,2.23154 -2.97539,0.74385 h -12.6454 l -3.71924,-0.74385 -2.23154,-2.23154 -0.74385,-3.71924 v -49.84521 l 0.74385,-2.97539 2.23154,-2.23155 3.71924,-0.74385 z"
             fill="#ff0000"
             id="path36" />
          <path
             d="m 200.48727,194.4247 2.97539,0.74385 2.97539,2.23155 0.74385,2.97539 v 49.84521 l -0.74385,3.71924 -2.97539,2.23154 -2.97539,0.74385 h -12.6454 l -3.71924,-0.74385 -2.23154,-2.23154 -0.74385,-3.71924 v -49.84521 l 0.74385,-2.97539 2.23154,-2.23155 3.71924,-0.74385 z"
             stroke="#cccccc"
             stroke-linecap="round"
             stroke-linejoin="round"
             stroke-width="2"
             id="path38" />
        </g>
        <g
           id="Graphic_7">
          <title
             id="title41">path44</title>
          <path
             d="m 243.9934,225.66875 h 39.43134 l 6.69462,-13.38925 H 250.688 Z"
             fill="#ff0000"
             id="path43" />
          <path
             d="m 243.9934,225.66875 h 39.43134 l 6.69462,-13.38925 H 250.688 Z"
             stroke="#cccccc"
             stroke-linecap="round"
             stroke-linejoin="round"
             stroke-width="2"
             id="path45" />
        </g>
        <g
           id="Graphic_6">
          <title
             id="title48">path49</title>
          <path
             d="m 243.9934,231.62256 h 39.43134 l 6.69462,13.38924 H 250.688 Z"
             fill="#ff0000"
             id="path50" />
          <path
             d="m 243.9934,231.62256 h 39.43134 l 6.69462,13.38924 H 250.688 Z"
             stroke="#cccccc"
             stroke-linecap="round"
             stroke-linejoin="round"
             stroke-width="2"
             id="path52" />
        </g>
        <g
           id="Graphic_5">
          <path
             d="M 294.4873,223.36706 H 111.55371 v 10.55744 h 189.33676 v -3.16724 l -10.51959,-2.11148 4.11642,-0.82625 z m 4.11765,3.62598 2.28552,-0.45874 v -3.16724 h -2.28552 z"
             fill="#ff0000"
             id="path55" />
          <path
             d="M 294.4873,223.36706 H 111.55371 v 10.55744 h 189.33676 v -3.16724 l -10.51959,-2.11148 4.11642,-0.82625 z m 4.11765,3.62598 2.28552,-0.45874 v -3.16724 h -2.28552 z"
             stroke="#cccccc"
             stroke-linecap="round"
             stroke-linejoin="round"
             stroke-width="2"
             id="path57" />
        </g>
        <g
           id="Graphic_4">
          <title
             id="title60">path59</title>
          <path
             d="M 115.68629,209.30575 63.609535,228.64578 115.68629,247.9858 Z"
             fill="#ff0000"
             id="path62" />
          <path
             d="M 115.68629,209.30575 63.609535,228.64578 115.68629,247.9858 Z"
             stroke="#cccccc"
             stroke-linecap="round"
             stroke-linejoin="round"
             stroke-width="2"
             id="path64" />
        </g>
      </g>
    </g>
  </g>
  <circle
     style="fill:#3250b0;stroke-width:3;stroke-linecap:round;stroke-linejoin:round;stroke-miterlimit:3"
     id="hold-point"
     cx="135.02437"
     cy="159.11223"
     r="11.790953" />
</svg>

<?xml version="1.0" encoding="UTF-8" standalone="no"?>
<!DOCTYPE svg PUBLIC "-//W3C//DTD SVG 1.1//EN" "http://www.w3.org/Graphics/SVG/1.1/DTD/svg11.dtd">
<svg xmlns:dc="http://purl.org/dc/elements/1.1/" xmlns:xl="http://www.w3.org/1999/xlink" version="1.1" xmlns="http://www.w3.org/2000/svg" viewBox="59.625 63 245.25 306" width="245.25" height="306">
  <defs>
    <clipPath id="artboard_clip_path">
      <path d="M 59.625 63 L 304.875 63 L 304.875 369 L 59.625 369 Z"/>
    </clipPath>
  </defs>
  <metadata> Produced by OmniGraffle 7.7.1 
    <dc:date>2018-03-18 08:21:30 +0000</dc:date><dc:title>Traceable heraldic art http://heraldicart.org/credits.html</dc:title>
  </metadata>
  <g id="Bow_With_An_Arrow_Nocked" fill-opacity="1" stroke-dasharray="none" stroke="none" stroke-opacity="1" fill="#ffff00">
    <title>Bow With An Arrow Nocked</title>
    <g id="Bow_With_An_Arrow_Nocked: Layer 2" >
      <title>Layer 2</title>
      <g id="Group_3">
        <g id="Graphic_11">
          <title>rect21</title>
          <rect x="294.57415" y="71.671135" width="4.1176416" height="289.40275" fill="#ff0000"/>
          <rect x="294.57415" y="71.671135" width="4.1176416" height="289.40275" stroke="#cccccc" stroke-linecap="round" stroke-linejoin="round" stroke-width="1.5"/>
        </g>
        <g id="Graphic_10">
          <title>path26</title>
          <path d="M 184.12305 236.08983 L 204.20693 236.08983 L 205.69462 250.22293 L 208.67 264.35603 L 214.62823 277.75272 L 222.0667 290.39813 L 231.73672 303.04353 L 243.63828 314.20124 L 257.02753 323.8787 L 271.9119 332.80487 L 280.8381 338.0118 L 289.0204 344.70643 L 294.9712 352.1449 L 298.69042 360.3272 L 299.43427 363.3026 L 297.20273 365.53415 L 293.4835 366.278 L 289.76425 364.7903 L 289.0204 361.8149 L 287.5327 356.608 L 283.81347 351.40105 L 279.3504 346.93797 L 272.65576 343.96258 L 255.53983 337.26795 L 239.1752 328.3418 L 225.0421 318.66433 L 212.39669 306.76277 L 201.97538 294.11736 L 193.79306 280.7281 L 187.84228 265.84373 L 184.8669 251.71063 Z" fill="#ff0000"/>
          <path d="M 184.12305 236.08983 L 204.20693 236.08983 L 205.69462 250.22293 L 208.67 264.35603 L 214.62823 277.75272 L 222.0667 290.39813 L 231.73672 303.04353 L 243.63828 314.20124 L 257.02753 323.8787 L 271.9119 332.80487 L 280.8381 338.0118 L 289.0204 344.70643 L 294.9712 352.1449 L 298.69042 360.3272 L 299.43427 363.3026 L 297.20273 365.53415 L 293.4835 366.278 L 289.76425 364.7903 L 289.0204 361.8149 L 287.5327 356.608 L 283.81347 351.40105 L 279.3504 346.93797 L 272.65576 343.96258 L 255.53983 337.26795 L 239.1752 328.3418 L 225.0421 318.66433 L 212.39669 306.76277 L 201.97538 294.11736 L 193.79306 280.7281 L 187.84228 265.84373 L 184.8669 251.71063 Z" stroke="#cccccc" stroke-linecap="round" stroke-linejoin="round" stroke-width="2"/>
        </g>
        <g id="Graphic_9">
          <title>path31</title>
          <path d="M 184.12305 195.16632 L 204.20693 195.16632 L 205.69462 181.03322 L 208.67 167.64397 L 214.62823 154.25472 L 222.0667 140.85802 L 231.73672 128.95647 L 243.63828 117.79876 L 257.02753 108.12874 L 271.9119 99.19513 L 280.8381 93.9882 L 289.0204 87.29357 L 294.9712 79.8551 L 298.69042 70.92893 L 299.43427 68.69739 L 297.20273 66.46585 L 293.4835 65.722 L 289.76425 67.209695 L 289.0204 69.44124 L 287.5327 75.39202 L 283.81347 80.59895 L 279.3504 85.06203 L 272.65576 88.03742 L 255.53983 94.73205 L 239.1752 103.66566 L 225.0421 113.33567 L 212.39669 125.23723 L 201.97538 137.88264 L 193.79306 151.27933 L 187.84228 165.41243 L 184.8669 180.28937 Z" fill="#ff0000"/>
          <path d="M 184.12305 195.16632 L 204.20693 195.16632 L 205.69462 181.03322 L 208.67 167.64397 L 214.62823 154.25472 L 222.0667 140.85802 L 231.73672 128.95647 L 243.63828 117.79876 L 257.02753 108.12874 L 271.9119 99.19513 L 280.8381 93.9882 L 289.0204 87.29357 L 294.9712 79.8551 L 298.69042 70.92893 L 299.43427 68.69739 L 297.20273 66.46585 L 293.4835 65.722 L 289.76425 67.209695 L 289.0204 69.44124 L 287.5327 75.39202 L 283.81347 80.59895 L 279.3504 85.06203 L 272.65576 88.03742 L 255.53983 94.73205 L 239.1752 103.66566 L 225.0421 113.33567 L 212.39669 125.23723 L 201.97538 137.88264 L 193.79306 151.27933 L 187.84228 165.41243 L 184.8669 180.28937 Z" stroke="#cccccc" stroke-linecap="round" stroke-linejoin="round" stroke-width="2"/>
        </g>
        <g id="Graphic_8">
          <title>path36</title>
          <path d="M 200.48727 194.4247 L 203.46266 195.16855 L 206.43805 197.4001 L 207.1819 200.37549 L 207.1819 250.2207 L 206.43805 253.93994 L 203.46266 256.17148 L 200.48727 256.91533 L 187.84187 256.91533 L 184.12263 256.17148 L 181.89109 253.93994 L 181.14724 250.2207 L 181.14724 200.37549 L 181.89109 197.4001 L 184.12263 195.16855 L 187.84187 194.4247 Z" fill="#ff0000"/>
          <path d="M 200.48727 194.4247 L 203.46266 195.16855 L 206.43805 197.4001 L 207.1819 200.37549 L 207.1819 250.2207 L 206.43805 253.93994 L 203.46266 256.17148 L 200.48727 256.91533 L 187.84187 256.91533 L 184.12263 256.17148 L 181.89109 253.93994 L 181.14724 250.2207 L 181.14724 200.37549 L 181.89109 197.4001 L 184.12263 195.16855 L 187.84187 194.4247 Z" stroke="#cccccc" stroke-linecap="round" stroke-linejoin="round" stroke-width="2"/>
        </g>
        <g id="Graphic_7">
          <title>path44</title>
          <path d="M 243.9934 225.66875 L 283.42474 225.66875 L 290.11936 212.2795 L 250.688 212.2795 Z" fill="#ff0000"/>
          <path d="M 243.9934 225.66875 L 283.42474 225.66875 L 290.11936 212.2795 L 250.688 212.2795 Z" stroke="#cccccc" stroke-linecap="round" stroke-linejoin="round" stroke-width="2"/>
        </g>
        <g id="Graphic_6">
          <title>path49</title>
          <path d="M 243.9934 231.62256 L 283.42474 231.62256 L 290.11936 245.0118 L 250.688 245.0118 Z" fill="#ff0000"/>
          <path d="M 243.9934 231.62256 L 283.42474 231.62256 L 290.11936 245.0118 L 250.688 245.0118 Z" stroke="#cccccc" stroke-linecap="round" stroke-linejoin="round" stroke-width="2"/>
        </g>
        <g id="Graphic_5">
          <path d="M 294.4873 223.36706 L 111.55371 223.36706 L 111.55371 233.9245 L 300.89047 233.9245 L 300.89047 230.75726 L 290.37088 228.64578 L 294.4873 227.81953 Z M 298.60495 226.99304 L 300.89047 226.5343 L 300.89047 223.36706 L 298.60495 223.36706 Z" fill="#ff0000"/>
          <path d="M 294.4873 223.36706 L 111.55371 223.36706 L 111.55371 233.9245 L 300.89047 233.9245 L 300.89047 230.75726 L 290.37088 228.64578 L 294.4873 227.81953 Z M 298.60495 226.99304 L 300.89047 226.5343 L 300.89047 223.36706 L 298.60495 223.36706 Z" stroke="#cccccc" stroke-linecap="round" stroke-linejoin="round" stroke-width="2"/>
        </g>
        <g id="Graphic_4">
          <title>path59</title>
          <path d="M 115.68629 209.30575 L 63.609535 228.64578 L 115.68629 247.9858 Z" fill="#ff0000"/>
          <path d="M 115.68629 209.30575 L 63.609535 228.64578 L 115.68629 247.9858 Z" stroke="#cccccc" stroke-linecap="round" stroke-linejoin="round" stroke-width="2"/>
        </g>
      </g>
    </g>
  </g>
</svg>
